public/chat.svg

<svg xmlns="http://www.w3.org/2000/svg"
 x="0px" y="0px" width="100" height="100" viewBox="0 0 50 50">
<path d="M 25 6 C 13.526286 6 4 13.7136 4 23.4375 C 4 29.610949 8.0052576 35.336806 14.298828 38.4375 A 1.0001 1.0001 0 0 0 14.298828 38.439453 C 14.321498 38.450593 14.316721 38.431551 14.306641 38.462891 C 14.026044 39.334531 13.083785 41.111046 12.175781 42.433594 A 1.0001 1.0001 0 0 0 13.294922 43.955078 C 15.7364 43.202868 18.266937 41.809598 19.787109 40.328125 C 19.787109 40.328125 19.789062 40.328125 19.789062 40.328125 C 20.69854 40.522027 21.624358 40.657425 22.554688 40.748047 C 24.946035 42.758366 28.247811 43.990234 31.841797 43.990234 C 33.013255 43.990234 34.188265 43.852989 35.337891 43.585938 C 36.384344 44.315325 37.521711 44.58987 38.572266 44.947266 A 1.0001 1.0001 0 0 0 39.742188 43.466797 C 39.384102 42.897562 39.169632 42.658155 38.972656 42.199219 C 42.649396 40.192133 44.947266 36.757832 44.947266 32.994141 C 44.947266 31.954794 44.763855 30.958201 44.447266 30.011719 C 45.441687 27.986624 46 25.763454 46 23.4375 C 46 13.7136 36.473714 6 25 6 z M 25 8 C 35.582286 8 44 15.0334 44 23.4375 C 44 24.888208 43.73741 26.284543 43.273438 27.617188 C 41.009817 24.24087 36.692775 22 31.841797 22 C 24.718957 22 18.736328 26.826273 18.736328 32.994141 C 18.736328 34.980576 19.36404 36.824024 20.443359 38.416016 C 20.361743 38.399548 20.278581 38.388465 20.197266 38.371094 A 1.0001 1.0001 0 0 0 20.191406 38.369141 C 20.064341 38.342981 19.927545 38.326172 19.78125 38.326172 C 19.264833 38.326172 18.765808 38.535031 18.398438 38.892578 A 1.0001 1.0001 0 0 0 18.396484 38.892578 C 17.701332 39.571005 16.505944 40.294461 15.214844 40.947266 C 15.543019 40.304953 16.038305 39.611017 16.210938 39.074219 C 16.512716 38.134058 16.070064 37.081797 15.181641 36.644531 C 9.4592628 33.825224 6 28.744051 6 23.4375 C 6 15.0334 14.417714 8 25 8 z M 31.841797 24 C 38.068957 24 42.947266 28.140009 42.947266 32.994141 C 42.947266 35.969675 41.145727 38.76769 37.958984 40.482422 A 1.0001 1.0001 0 0 0 37.957031 40.484375 C 37.326022 40.824847 37.074008 41.499264 37.072266 42.189453 C 36.896198 42.102293 36.592201 42.04088 36.447266 41.9375 A 1.0001 1.0001 0 0 0 36.445312 41.935547 C 36.12793 41.710906 35.739477 41.583984 35.345703 41.583984 C 35.199513 41.583984 35.052625 41.601246 34.910156 41.634766 C 33.901002 41.871228 32.868502 41.990234 31.841797 41.990234 C 25.614637 41.990234 20.736328 37.848273 20.736328 32.994141 C 20.736421 28.140011 25.614637 24 31.841797 24 z M 26.703125 31.056641 A 1.976 1.976 0 1 0 26.703125 35.007812 A 1.976 1.976 0 1 0 26.703125 31.056641 z M 32.236328 31.056641 A 1.976 1.976 0 1 0 32.236328 35.007812 A 1.976 1.976 0 1 0 32.236328 31.056641 z M 37.769531 31.056641 A 1.976 1.976 0 1 0 37.769531 35.007812 A 1.976 1.976 0 1 0 37.769531 31.056641 z"></path>
</svg>

<svg xmlns="http://www.w3.org/2000/svg" x="0px" y="0px" width="100" height="100" viewBox="0,0,256,256">
<g fill="none" fill-rule="nonzero" stroke="none" stroke-width="1" stroke-linecap="butt" stroke-linejoin="none" stroke-miterlimit="10" stroke-dasharray="" stroke-dashoffset="0" font-family="none" font-weight="none" font-size="none" text-anchor="none" style="mix-blend-mode: normal"><path transform="scale(5.12,5.12)" d="M46,23.4375c0,2.32595 -0.55831,4.54912 -1.55273,6.57422c0.31659,0.94648 0.5,1.94308 0.5,2.98242c0,3.76369 -2.29787,7.19799 -5.97461,9.20508c0.19698,0.45894 0.41145,0.69834 0.76953,1.26758c0.22686,0.35873 0.20256,0.82159 -0.0606,1.15461c-0.26316,0.33302 -0.70787,0.46365 -1.10932,0.32586c-1.05055,-0.3574 -2.18792,-0.63194 -3.23437,-1.36133c-1.14963,0.26705 -2.32464,0.4043 -3.49609,0.4043c-3.59399,0 -6.89576,-1.23187 -9.28711,-3.24219c-0.93033,-0.09062 -1.85615,-0.22602 -2.76563,-0.41992h-0.00195c-1.52017,1.48147 -4.05071,2.87474 -6.49219,3.62695c-0.40661,0.12525 -0.84794,-0.02047 -1.10004,-0.3632c-0.2521,-0.34273 -0.25976,-0.80743 -0.0191,-1.15829c0.908,-1.32255 1.85026,-3.09906 2.13086,-3.9707c0.01008,-0.03134 0.01486,-0.0123 -0.00781,-0.02344c0,-0.00065 0,-0.0013 0,-0.00195c-6.29357,-3.10069 -10.29883,-8.82655 -10.29883,-15c0,-9.7239 9.52629,-17.4375 21,-17.4375c11.47371,0 21,7.7136 21,17.4375z" id="strokeMainSVG" fill="#f5f5f5" stroke="#f5f5f5" stroke-linejoin="round"></path><g transform="scale(5.12,5.12)" fill="#374151" stroke="none" stroke-linejoin="miter"><path d="M25,6c-11.47371,0 -21,7.7136 -21,17.4375c0,6.17345 4.00526,11.89931 10.29883,15c0,0.00065 0,0.0013 0,0.00195c0.02267,0.01114 0.01789,-0.0079 0.00781,0.02344c-0.2806,0.87164 -1.22286,2.64816 -2.13086,3.9707c-0.24066,0.35085 -0.23299,0.81556 0.0191,1.15829c0.2521,0.34273 0.69343,0.48844 1.10004,0.3632c2.44148,-0.75221 4.97201,-2.14548 6.49219,-3.62695h0.00195c0.90948,0.1939 1.8353,0.3293 2.76563,0.41992c2.39135,2.01032 5.69312,3.24219 9.28711,3.24219c1.17146,0 2.34647,-0.13725 3.49609,-0.4043c1.04645,0.72939 2.18382,1.00393 3.23438,1.36133c0.40146,0.13778 0.84616,0.00715 1.10932,-0.32586c0.26316,-0.33302 0.28745,-0.79587 0.0606,-1.15461c-0.35809,-0.56923 -0.57256,-0.80864 -0.76953,-1.26758c3.67674,-2.00709 5.97461,-5.44139 5.97461,-9.20508c0,-1.03935 -0.18341,-2.03594 -0.5,-2.98242c0.99442,-2.0251 1.55273,-4.24826 1.55273,-6.57422c0,-9.7239 -9.52629,-17.4375 -21,-17.4375zM25,8c10.58229,0 19,7.0334 19,15.4375c0,1.45071 -0.26259,2.84704 -0.72656,4.17969c-2.26362,-3.37632 -6.58066,-5.61719 -11.43164,-5.61719c-7.12284,0 -13.10547,4.82627 -13.10547,10.99414c0,1.98644 0.62771,3.82988 1.70703,5.42188c-0.08162,-0.01647 -0.16478,-0.02755 -0.24609,-0.04492c-0.00195,-0.00066 -0.0039,-0.00131 -0.00586,-0.00195c-0.12707,-0.02616 -0.26386,-0.04297 -0.41016,-0.04297c-0.51642,0 -1.01544,0.20886 -1.38281,0.56641c-0.00065,0 -0.0013,0 -0.00195,0c-0.69515,0.67843 -1.89054,1.40188 -3.18164,2.05469c0.32817,-0.64231 0.82346,-1.33625 0.99609,-1.87305c0.30178,-0.94016 -0.14087,-1.99242 -1.0293,-2.42969c-5.72238,-2.81931 -9.18164,-7.90048 -9.18164,-13.20703c0,-8.4041 8.41771,-15.4375 19,-15.4375zM31.8418,24c6.22716,0 11.10547,4.14001 11.10547,8.99414c0,2.97553 -1.80154,5.77355 -4.98828,7.48828c-0.00065,0.00065 -0.0013,0.0013 -0.00195,0.00195c-0.63101,0.34047 -0.88302,1.01489 -0.88477,1.70508c-0.17607,-0.08716 -0.48006,-0.14857 -0.625,-0.25195c-0.00065,-0.00065 -0.0013,-0.0013 -0.00195,-0.00195c-0.31738,-0.22464 -0.70584,-0.35156 -1.09961,-0.35156c-0.14619,0 -0.29308,0.01726 -0.43555,0.05078c-1.00915,0.23646 -2.04165,0.35547 -3.06836,0.35547c-6.22716,0 -11.10547,-4.14196 -11.10547,-8.99609c0.00009,-4.85413 4.87831,-8.99414 11.10547,-8.99414zM26.70313,31.05664c-0.71546,-0.01466 -1.38293,0.35865 -1.74495,0.97592c-0.36203,0.61728 -0.36203,1.38205 0,1.99932c0.36203,0.61728 1.0295,0.99058 1.74495,0.97592c0.71546,0.01466 1.38293,-0.35865 1.74495,-0.97592c0.36203,-0.61728 0.36203,-1.38205 0,-1.99932c-0.36203,-0.61728 -1.0295,-0.99058 -1.74495,-0.97592zM32.23633,31.05664c-0.71546,-0.01466 -1.38293,0.35865 -1.74495,0.97592c-0.36203,0.61728 -0.36203,1.38205 0,1.99932c0.36203,0.61728 1.0295,0.99058 1.74495,0.97592c0.71546,0.01466 1.38293,-0.35865 1.74495,-0.97592c0.36203,-0.61728 0.36203,-1.38205 0,-1.99932c-0.36203,-0.61728 -1.0295,-0.99058 -1.74495,-0.97592zM37.76953,31.05664c-0.71546,-0.01466 -1.38293,0.35865 -1.74495,0.97592c-0.36203,0.61728 -0.36203,1.38205 0,1.99932c0.36203,0.61728 1.0295,0.99058 1.74495,0.97592c0.71546,0.01466 1.38293,-0.35865 1.74495,-0.97592c0.36203,-0.61728 0.36203,-1.38205 0,-1.99932c-0.36203,-0.61728 -1.0295,-0.99058 -1.74495,-0.97592z"></path></g></g>
</svg>
